!!!COM: Stadler, Maximilian
!!!CDT: 1748///-1833///
!!!COA: Haydn, Joseph
!!!OTL@@IT: Gioco filarmonico
!!!OTL@EN: Philharmonic Joke
!!!OTA@@IT: o sia maniera facile per comporre un infinito numero de minuetti e trio anche senza sapere il contrapunto
!!!OTA@EN: or the Art of Composing an Infinite Number of Minutes Without the Least Knowledge of Counterpoint
!!!PDT: 1781///
!!!PPR: Artaria
!!!SML: Gesellschaft der Musikfreundes, Vienna
!!!PPR2: Luigi Marescalchi
!!!PPP2: Napoli
!!!PDT2: 1790///
**kern	**kern	**kern
*Icello	*Ivioln	*Ivioln
*>[A,A,B,B,A]	*>[A,A,B,B,A]	*>[A,A,B,B,A]
*>norep[A,B]	*>norep[A,B]	*>norep[A,B]
*>A	*>A	*>A
*k[]	*k[]	*k[]
*M3/4	*M3/4	*M3/4
*MM120	*MM120	*MM120
!!section:  I
!!measure:  A
!!diceroll: 9
=119	=119	=119
4C	2e	2cc
4E	.	.
4G	16d	16b
.	16e	16cc
.	16f	16dd
.	16d	16b
!!section:  I
!!measure:  B
!!diceroll: 5
=17	=17	=17
4r	4r	16cc#
.	.	8.dd
4F	2g	16gg
.	.	8.b
4E	.	16cc#
.	.	8.g
!!section:  I
!!measure:  C
!!diceroll: 8
=171	=171	=171
4A	4c	4ff
4B	4d	16gg
.	.	16ff
.	.	16ee
.	.	16dd
4c	4g	16ff
.	.	16ee
.	.	16dd
.	.	16cc
!!section:  I
!!measure:  D
!!diceroll: 9
=50	=50	=50
2G	8f	8b
.	8e	8cc
.	16f	16dd
.	16e	16cc
.	16f	16dd
.	16g	16ee
4C	4e	4cc
!!section:  I
!!measure:  E
!!diceroll: 9
=140	=140	=140
8F#	4a	2cc
8d	.	.
8A	4f#	.
8d	.	.
8F#	8cc	8aa
8d	8a	8cc
!!section:  I
!!measure:  F
!!diceroll: 10
=129	=129	=129
4B	4g	8gg
.	.	8dd
4A	4f#	16ee
.	.	16dd
.	.	8cc
4G	4g	16dd
.	.	16cc
.	.	8b
!!section:  I
!!measure:  G
!!diceroll: 10
=62	=62	=62
4GG	12b	12dd
.	12b	12gg
.	12dd	12ff#
4C	12cc	12ee
.	12bb	12dd
.	12a	12cc
4D	12g	12b
.	12a	12cc
.	12ff#	12a
!!section:  I
!!measure:  H
!!diceroll: 8
=127	=127	=127
8G	2.g	2.g
8GG	.	.
8BB	.	.
8D	.	.
4G	.	.
*>B	*>B	*>B
!!section:  II
!!measure:  A
!!diceroll: 4
=66	=66	=66
4r	4r	8cc#
.	.	8ee
4G	4A	8r
.	.	8ee
4G	4A	16dd
.	.	16cc#
.	.	16b
.	.	16a
!!section:  II
!!measure:  B
!!diceroll: 8
=155	=155	=155
4r	4r	4dd
4A	4c#	16ee
.	.	16dd
.	.	16ee
.	.	16gg
4D	4d	4ff
!!section:  II
!!measure:  C
!!diceroll: 7
=150	=150	=150
4r	4r	8f
.	.	8ff
4F	4G#	8ee
.	.	8dd
4F	4G#	8cc
.	.	8b
!!section:  II
!!measure:  D
!!diceroll: 8
=175	=175	=175
4r	4r	16dd
.	.	16cc
.	.	16b
.	.	16cc
4C	12e	2g
.	12g	.
.	12cc	.
4C	12e	.
.	12g	.
.	12cc	.
!!section:  II
!!measure:  E
!!diceroll: 12
=12	=12	=12
4FF	8a	4aa
.	8cc	.
4F	4cc	16aa
.	.	16gg
.	.	16ff
.	.	16ee
4r	4r	16dd
.	.	16cc
.	.	16b
.	.	16a
!!section:  II
!!measure:  F
!!diceroll: 4
=58	=58	=58
4r	4r	[4gg
4G	4B	16gg]
.	.	16ff
.	.	16ee
.	.	16ff
4A	4c	4ee
!!section:  II
!!measure:  G
!!diceroll: 7
=23	=23	=23
4F	4c	16a
.	.	16aa
.	.	16gg
.	.	16ff
4G	4c	4ee
4G	4B	4dd
!!section:  II
!!measure:  H
!!diceroll: 5
=170	=170	=170
4C	2.cc	2.cc
4G	.	.
4c	.	.
*-	*-	*-
!!!END: 2004/11/01/
